X: 30
T:Glorishear - Field Town
S:OY(AB)2 (AC)2
N:Tune as played for Grand Union Morris
N:www.grandunionmorris.co.uk
M:6/8
L:1/8
Q:80
K:G
"A"d/2c/2 | BAG GFG | ABA D2 G | ABA Adc | BcA GAB |cde def | def g2 f |
 ed
c BcA | GAG  G3 ||
"B" e2 d dAB | cdc cAB | cde edc | GAG FED | G2 g gfg | G2 g g2 f | e
dc BcA | GAG G3||
"C" e3 d3 | d2 A B3 | c2 d c3 | c2 A B3 |c2 d e3 | e2 d c3| G2 A G3 |
 F2 E D3 | G3 g3 | g2 f g3 | G3 g3 | g4-g  f | edc BcA | GAG G2 ||
